!!!COM: des Prez, Josquin
!!!CDT: ~1450-1521/08/27
!!!OTL@@LAT: Qui habitat in adjutorio altissimi
!!!OTL2@@LAT: Non accedet ad te malum
!!!AGN: Motet
!!!SCT: NJE 18.7
!!!SCA: New Josquin Edition 18.7
!!!voices: 4
**kern	**text	**kern	**text	**kern	**text	**kern	**text
*staff4	*	*staff3	*	*staff2	*	*staff1	*
*Ivox	*	*Ivox	*	*Ivox	*	*Ivox	*
*I"Bassus	*	*I"Tenor	*	*I"Altus	*	*I"Superius	*
*I'B	*	*I'T	*	*I'A	*	*I'S	*
*>[A,B]	*	*>[A,B]	*	*>[A,B]	*	*>[A,B]	*
*>A	*	*>A	*	*>A	*	*>A	*
*clefF4	*	*clefGv2	*	*clefGv2	*	*clefG2	*
*k[b-]	*	*k[b-]	*	*k[b-]	*	*k[b-]	*
*M2/1	*	*M2/1	*	*M2/1	*	*M2/1	*
*met(C|)	*	*met(C|)	*	*met(C|)	*	*met(C|)	*
=1-	=1-	=1-	=1-	=1-	=1-	=1-	=1-
0r	.	0r	.	0r	.	1G	Qui
.	.	.	.	.	.	2G/	ha-
.	.	.	.	.	.	2G/	-bi-
=2	=2	=2	=2	=2	=2	=2	=2
0r	.	0r	.	0r	.	1.d	-tat
.	.	.	.	.	.	2G/	in
=3	=3	=3	=3	=3	=3	=3	=3
0r	.	0r	.	1G	Qui	2d/	ad-
.	.	.	.	.	.	2G/	-ju-
.	.	.	.	2G/	ha-	2d/	-to-
.	.	.	.	2G/	-bi-	2e/	-ri-
=4	=4	=4	=4	=4	=4	=4	=4
0r	.	0r	.	1.d	-tat	1f	-o
.	.	.	.	.	.	1B-	al-
.	.	.	.	2G/	in	.	.
=5	=5	=5	=5	=5	=5	=5	=5
0r	.	1G	Qui	2d\	ad-	1.b-	-tis-
.	.	.	.	2G/	-ju-	.	.
.	.	2G/	ha-	2d\	-to-	.	.
.	.	2G/	-bi-	2e\	-ri-	2b-\	-si-
=6	=6	=6	=6	=6	=6	=6	=6
0r	.	1.d	-tat	1f	-o	1a	-mi,
.	.	.	.	2d\	al-	2a/	al-
.	.	2G/	in	[2d\	-tis-	[2b-\	-tis-
=7	=7	=7	=7	=7	=7	=7	=7
1GG	Qui	2d\	ad-	4d\]	.	4b-\]	.
.	.	.	.	4c\	.	4a/	.
.	.	2G/	-ju-	4B-\	.	4g/	.
.	.	.	.	4A/	.	4f/	.
2GG/	ha-	2d\	-to-	2B-\	.	2g/	.
2GG/	-bi-	2e\	-ri-	2B-\	-si-	2g/	-si-
=8	=8	=8	=8	=8	=8	=8	=8
1.D	-tat	1f	-o	2A/	-mi,	1a	-mi,
.	.	.	.	2.d\	al-	.	.
.	.	2d\	al-	.	.	1r	.
.	.	.	.	4c\	.	.	.
2GG/	in	[2d\	-tis-	[2B-\	-tis-	.	.
=9	=9	=9	=9	=9	=9	=9	=9
2D\	ad-	4d\]	.	4B-\]	.	0r	.
.	.	4c\	.	4A/	.	.	.
2GG/	-ju-	4B-\	.	2G/	.	.	.
.	.	4A/	.	.	.	.	.
2D\	-to-	2B-\	.	2F/	.	.	.
2E\	-ri-	2B-\	-si-	2G/	-si-	.	.
=10	=10	=10	=10	=10	=10	=10	=10
1.F	-o	1A	-mi,	0D	-mi,	1a	in
.	.	2r	.	.	.	2a/	pro-
2F\	al-	2d\	in	.	.	[2a/	-tec-
=11	=11	=11	=11	=11	=11	=11	=11
1F	-tis-	2c\	pro-	1r	.	2a/]	.
.	.	1d	-tec-	.	.	2a/	-ti-
1G	-si-	.	.	1d	-mi,	1b-	-o-
.	.	2B-\	-ti-	.	.	.	.
=12	=12	=12	=12	=12	=12	=12	=12
1D	-mi,	1f	-o-	1d	pro-	1a	-ne
2r	.	1B-	-ne	[1d	-tec-	1b-	de-
2G\	in	.	.	.	.	.	.
=13	=13	=13	=13	=13	=13	=13	=13
2F\	pro-	0r	.	2d\]	.	2a/	-i
1G	-tec-	.	.	2d\	-ti-	1b-	ce
.	.	.	.	1e-i	-o-	.	.
2E-\	-ti-	.	.	.	.	4a/	.
.	.	.	.	.	.	4g/	.
=14	=14	=14	=14	=14	=14	=14	=14
1B-	-o-	0r	.	1d	-ne	1f	-li,
1E-i	-ne	.	.	1e-i	de-	2r	.
.	.	.	.	.	.	2g/	de-
=15	=15	=15	=15	=15	=15	=15	=15
0r	.	0r	.	2d\	-i	2f/	-i
.	.	.	.	1e-i	ce-	1g	ce-
.	.	.	.	4d\	.	4f/	.
.	.	.	.	4c\	.	4e-i/	.
=16	=16	=16	=16	=16	=16	=16	=16
2r	.	2r	.	1B-	-li,	1d	-li,
2B-\	de-	2d\	de-	.	.	.	.
2A\	-i	2c\	-i	1r	.	1r	.
[2B-\	ce-	[2d\	ce-	.	.	.	.
=17	=17	=17	=17	=17	=17	=17	=17
2B-\]	.	2d\]	.	1r	.	0r	.
4A\	.	4c\	.	.	.	.	.
4G\	.	4B-\	.	.	.	.	.
2F\	.	1A	-li	2r	.	.	.
2D\	-li	.	.	2d\	com-	.	.
=18	=18	=18	=18	=18	=18	=18	=18
2r	.	0r	.	2d\	-mo-	2r	.
2G\	com-	.	.	2.d\	-ra-	2b-\	com-
2F\	-mo-	.	.	.	.	2a/	-mo-
.	.	.	.	4c\	.	.	.
[2G\	-ra-	.	.	4B-\	.	[2b-\	-ra-
.	.	.	.	4A/	.	.	.
=19	=19	=19	=19	=19	=19	=19	=19
4G\]	.	1r	.	1G	.	4b-\]	.
4F\	.	.	.	.	.	4a/	.
4E\	.	.	.	.	.	1g	.
4D\	.	.	.	.	.	.	.
2C/	.	2r	.	1A	-bi-	.	.
2D\	-bi-	2d\	com-	.	.	2f#i/	-bi-
=20	=20	=20	=20	=20	=20	=20	=20
1GG	-tur,	2d\	-mo-	1G	-tur,	2g/	-tur,
.	.	2.d\	-ra-	.	.	2b-\	com-
1r	.	.	.	1r	.	2a/	-mo-
.	.	4c\	.	.	.	.	.
.	.	4B-\	.	.	.	[2b-\	-ra-
.	.	4A/	.	.	.	.	.
=21	=21	=21	=21	=21	=21	=21	=21
0r	.	1G	.	0r	.	4b-\]	.
.	.	.	.	.	.	4a/	.
.	.	.	.	.	.	1g	.
.	.	1A	-bi-	.	.	.	.
.	.	.	.	.	.	2f#i/	-bi-
=22	=22	=22	=22	=22	=22	=22	=22
1r	.	2G/	-tur,	0r	.	1g	-tur.
.	.	2B-\	com-	.	.	.	.
[1D	Di-	2A/	-mo-	.	.	1r	.
.	.	[2B-\	-ra-	.	.	.	.
=23	=23	=23	=23	=23	=23	=23	=23
2D\]	.	4B-\]	.	0r	.	0r	.
.	.	4A/	.	.	.	.	.
2BB-/	-cet	1G	.	.	.	.	.
2C/	do-	.	.	.	.	.	.
2D\	-mi-	2F#i/	-bi-	.	.	.	.
=24	=24	=24	=24	=24	=24	=24	=24
2GG/	-no&colon;	0G	-tur.	1.d	Di-	0r	.
2G\	su-	.	.	.	.	.	.
2G\	-cep-	.	.	.	.	.	.
2G\	-tor	.	.	2B-\	-cet	.	.
=25	=25	=25	=25	=25	=25	=25	=25
2F\	me-	0r	.	2c\	do-	0r	.
2D\	-us	.	.	2d\	-mi-	.	.
1E	es-	.	.	1G	-no&colon;	.	.
=26	=26	=26	=26	=26	=26	=26	=26
0D	-tu,	0r	.	2r	.	1.a	Di-
.	.	.	.	2d\	sus-	.	.
.	.	.	.	2d\	-cep-	.	.
.	.	.	.	2d\	-tor	2f/	-cet
=27	=27	=27	=27	=27	=27	=27	=27
0r	.	0r	.	2c\	me-	2g/	do-
.	.	.	.	2A/	-us	2a/	-mi-
.	.	.	.	1B-	es-	1d	-no&colon;
=28	=28	=28	=28	=28	=28	=28	=28
0r	.	1.A	Di-	4A/	-tu,	2r	.
.	.	.	.	4G/	.	.	.
.	.	.	.	4F/	.	2a/	sus-
.	.	.	.	4E/	.	.	.
.	.	.	.	2D/	.	2a/	-cep-
.	.	2F/	-cet	[2d\	es-	2a/	-tor
=29	=29	=29	=29	=29	=29	=29	=29
0r	.	2G/	do-	4d\]	.	2g/	me-
.	.	.	.	4B-\	.	.	.
.	.	2A/	-mi-	2c\	.	2e/	-us
.	.	1D	-no&colon;	1d	-tu,	1f	es-
=30	=30	=30	=30	=30	=30	=30	=30
2r	.	2r	.	2r	.	2e/	-tu,
2D\	sus-	2d\	sus-	2A/	sus-	2f/	sus-
2D\	cep-	2d\	cep-	2A/	cep-	2f/	cep-
2BB-/	-tor	2d\	-tor	2B-\	-tor	2d/	-tor
=31	=31	=31	=31	=31	=31	=31	=31
2C/	me-	2c\	me-	2G/	me-	2e/	me-
2D\	-us	2A/	-us	2F/	-us	2f/	-us
1GG	es	1B-	es	[1d	es	1g	es
=32	=32	=32	=32	=32	=32	=32	=32
0D	tu	1A	tu	1d]	.	0a	tu
.	.	2r	.	1d	tu	.	.
.	.	2d\	et	.	.	.	.
=33	=33	=33	=33	=33	=33	=33	=33
0r	.	2d\	re-	0r	.	2r	.
.	.	2.f\	-fu-	.	.	2a/	et
.	.	.	.	.	.	2a/	re-
.	.	4f\	-gi-	.	.	.	.
.	.	2c\	-um	.	.	[2cc\	-fu-
=34	=34	=34	=34	=34	=34	=34	=34
0r	.	1e-i	me-	0r	.	4cc\]	.
.	.	.	.	.	.	4cc\	-gi-
.	.	.	.	.	.	2g/	-um
.	.	[1d	-um;	.	.	1b-	me-
=35	=35	=35	=35	=35	=35	=35	=35
2r	.	1d]	.	1r	.	0a	-um;
2D\	et	.	.	.	.	.	.
2D\	re-	1r	.	2r	.	.	.
[2F\	-fu-	.	.	2A/	et	.	.
=36	=36	=36	=36	=36	=36	=36	=36
4F\]	.	0r	.	2A/	re-	0r	.
4F\	-gi-	.	.	.	.	.	.
2C/	-um	.	.	2.c\	-fu-	.	.
1E-	me-	.	.	.	.	.	.
.	.	.	.	4c\	-gi-	.	.
.	.	.	.	2G/	-um	.	.
=37	=37	=37	=37	=37	=37	=37	=37
0D	-um;	1r	.	1B-	me-	1r	.
.	.	2r	.	1A	-um;	1a	de-
.	.	[2d\	de-	.	.	.	.
=38	=38	=38	=38	=38	=38	=38	=38
0r	.	2d\]	.	0r	.	2a/	-us
.	.	2d\	-us	.	.	1b-	me-
.	.	2.B-\	me-	.	.	.	.
.	.	.	.	.	.	4a/	.
.	.	4c\	.	.	.	4g/	.
=39	=39	=39	=39	=39	=39	=39	=39
1r	.	0d	-us,	1r	.	1b-	.
1D	de-	.	.	1d	de-	1a	-us,
=40	=40	=40	=40	=40	=40	=40	=40
2D\	-us	0r	.	1B-	-us	1r	.
1E-i	me-	.	.	.	.	.	.
.	.	.	.	[1c	me-	1g	spe-
4D\	.	.	.	.	.	.	.
4C/	.	.	.	.	.	.	.
=41	=41	=41	=41	=41	=41	=41	=41
1E-i	.	1G	spe-	1c]	.	1g	-ra-
1D	-us	1A	-ra-	1d	-us	2.f/	.
.	.	.	.	.	.	4e/	.
=42	=42	=42	=42	=42	=42	=42	=42
2r	.	2B-\	-bo,	2r	.	4d/	.
.	.	.	.	.	.	4e/	.
2D\	spe-	2A/	spe-	2d\	spe-	4f/	.
.	.	.	.	.	.	4g/	.
2D\	-ra-	2f\	-ra-	2d\	-ra-	2a/	.
2BB-/	-bo	2d\	-bo,	2d\	-bo	2b-\	-bo
=43	=43	=43	=43	=43	=43	=43	=43
1C	in	1e-i	in	2.c\	in	2a/	in
.	.	.	.	.	.	2.g/	e-
.	.	.	.	4B-\	.	.	.
1D	e-	2.d\	e-	1A	e-	.	.
.	.	.	.	.	.	4f#i/	.
.	.	.	.	.	.	4f#i/	.
.	.	4c\	.	.	.	4e/	.
=44	=44	=44	=44	=44	=44	=44	=44
0GG	-um,	4B-\	.	1G	-um,	1g	-um,
.	.	4A/	.	.	.	.	.
.	.	1B-	.	.	.	.	.
.	.	.	.	1d	.	2r	.
.	.	4A/	.	.	.	2d/	spe-
.	.	4G/	.	.	.	.	.
=45	=45	=45	=45	=45	=45	=45	=45
2r	.	2F/	-um,	2r	.	4f/	-ra-
.	.	.	.	.	.	4e/	.
2D\	spe-	2f\	spe-	2d\	spe-	4f/	.
.	.	.	.	.	.	4g/	.
2D\	-ra-	2f\	-ra-	2d\	-ra-	2a/	.
2BB-/	-bo	2d\	-bo	2d\	-bo	2b-\	-bo
=46	=46	=46	=46	=46	=46	=46	=46
1C	in	1e-i	in	2.c\	in	2a/	in
.	.	.	.	.	.	2.g/	e-
.	.	.	.	4B-\	.	.	.
1D	e-	1d	e-	1A	e-	.	.
.	.	.	.	.	.	4f#i/	.
.	.	.	.	.	.	4f#i/	.
.	.	.	.	.	.	8e/L	.
.	.	.	.	.	.	8f#i/J	.
=47	=47	=47	=47	=47	=47	=47	=47
1GG	-um.	1B-	-um.	0G	-um.	1g	-um.
2r	.	2r	.	.	.	2r	.
2GG/	Quo-	2B-\	Quo-	.	.	2d/	Quo-
=48	=48	=48	=48	=48	=48	=48	=48
2GG/	-ni-	2B-\	-ni-	1r	.	2d/	-ni-
2GG/	-am	2B-\	-am	.	.	2d/	-am
1C	ip-	1c	ip-	[1G	Quo-	1e	ip-
=49	=49	=49	=49	=49	=49	=49	=49
1GG	-se...	1B-	-se...	2G/]	.	2d/	-se
.	.	.	.	2G/	-ni-	1g	li-
1r	.	1r	.	2G/	-am	.	.
.	.	.	.	[2A/	ip-	2e/	-be-
=50	=50	=50	=50	=50	=50	=50	=50
0r	.	0r	.	2A/]	.	2f/	-ra-
.	.	.	.	2G/	-se	2g/	-vit
.	.	.	.	2.c\	li-	2e/	me-
.	.	.	.	.	.	2c/	de
.	.	.	.	4A/	-be-	.	.
=51	=51	=51	=51	=51	=51	=51	=51
0r	.	0r	.	2B-\	-ra-	2d/	la-
.	.	.	.	2c\	-vit	2e/	-que-
.	.	.	.	2A/	me-	2c/	-o
.	.	.	.	2F/	de	2A/	ve-
=52	=52	=52	=52	=52	=52	=52	=52
0r	.	0r	.	2G/	la-	2B-/	-nan-
.	.	.	.	2A/	-que-	2c/	-ti-
.	.	.	.	2F/	-o	2A/	-um,
.	.	.	.	2D/	ve-	2d/	et
=53	=53	=53	=53	=53	=53	=53	=53
0r	.	0r	.	2E/	-nan-	2c/	a
.	.	.	.	2F/	-ti-	2.d/	ver-
.	.	.	.	2D/	-um,	.	.
.	.	.	.	.	.	4e/	.
.	.	.	.	2d\	et	4f/	.
.	.	.	.	.	.	4d/	.
=54	=54	=54	=54	=54	=54	=54	=54
0r	.	0r	.	2c\	a	2e/	-bo
.	.	.	.	2.f\	ver-	4d/	as-
.	.	.	.	.	.	4e/	.
.	.	.	.	.	.	4f/	.
.	.	.	.	4e\	.	4g/	.
.	.	.	.	2d\	-bo	[2a/	.
=55	=55	=55	=55	=55	=55	=55	=55
0r	.	0r	.	4c\	as-	4a/]	.
.	.	.	.	4B-\	.	4g/	.
.	.	.	.	4A/	.	1g	.
.	.	.	.	4G/	.	.	.
.	.	.	.	2A/	.	.	.
.	.	.	.	2A/	-pe-	2f#i/	-pe-
=56	=56	=56	=56	=56	=56	=56	=56
0r	.	1r	.	0G	-ro.	0g	-ro.
.	.	1G	Sca-	.	.	.	.
=57	=57	=57	=57	=57	=57	=57	=57
1GG	Sca-	2G/	-pu-	0r	.	1r	.
.	.	2G/	-lis	.	.	.	.
2GG/	-pu-	[1B-	su-	.	.	1d	Sca-
2GG/	-lis	.	.	.	.	.	.
=58	=58	=58	=58	=58	=58	=58	=58
2.BB-/	su-	1B-]	.	1D	Sca-	2d/	-pu-
.	.	.	.	.	.	2d/	-lis
4C/	.	.	.	.	.	.	.
1D	-is	1A	-is	2D/	-pu-	[1f	su-
.	.	.	.	2D/	-lis	.	.
=59	=59	=59	=59	=59	=59	=59	=59
2D\	ob-	1d	ob-	2.F/	su-	2f/]	.
2D\	-um-	.	.	.	.	4e/	.
.	.	.	.	4G/	.	4d/	.
1D	-bra-	1d	-um-	[1A	-is	1f	.
=60	=60	=60	=60	=60	=60	=60	=60
2AA/	-bit	1c	-bra-	1A]	.	1e	-is
1C	ti-	.	.	.	.	.	.
.	.	1c	-bit	[1G	ob-	2r	.
4BB-/	.	.	.	.	.	2g/	ob-
4AA/	.	.	.	.	.	.	.
=61	=61	=61	=61	=61	=61	=61	=61
0GG	-bi,	2B-\	ti-	2G/]	.	2g/	-um-
.	.	2G/	.	2G/	-um-	1g	-bra-
.	.	1B-	.	1G	-bra-	.	.
.	.	.	.	.	.	4d/	-bit
.	.	.	.	.	.	4e/	.
=62	=62	=62	=62	=62	=62	=62	=62
0r	.	1A	-bi,	1D	-bit	4f/	.
.	.	.	.	.	.	4g/	.
.	.	.	.	.	.	1a	ti-
.	.	[1c	et	[1A	ti-	.	.
.	.	.	.	.	.	4g/	.
.	.	.	.	.	.	4f/	.
=63	=63	=63	=63	=63	=63	=63	=63
1.C	et	2c\]	.	1A]	.	1e	-bi,
.	.	2c\	sub	.	.	.	.
.	.	2c\	pen-	1G	-bi,	1r	.
2C/	sub-	2c\	-nis	.	.	.	.
=64	=64	=64	=64	=64	=64	=64	=64
2C/	pen-	2c\	e-	0r	.	1.g	et
2C/	-nis	2G/	-jus	.	.	.	.
1C	e-	1c	spe-	.	.	.	.
.	.	.	.	.	.	2g/	sub
=65	=65	=65	=65	=65	=65	=65	=65
1GG	-jus	1B-	-ra-	1.G	et	2g/	pen-
.	.	.	.	.	.	2g/	-nis
1C	spe-	1G	-bis.	.	.	1e	e-
.	.	.	.	2G/	sub	.	.
=66	=66	=66	=66	=66	=66	=66	=66
1BB-	-ra-	1r	.	2G/	pen-	1d	-jus
.	.	.	.	2G/	-nis	.	.
1GG	-bis.	1G	Scu-	1G	e-	1g	spe-
=67	=67	=67	=67	=67	=67	=67	=67
1r	.	1d	-to	1D	-jus	1f	-ra-
1GG	Scu-	2r	.	1G	spe-	1d	-bis.
.	.	2B-\	cir-	.	.	.	.
=68	=68	=68	=68	=68	=68	=68	=68
1D	-to	2A/	-cum-	1F	-ra-	0r	.
.	.	2A/	-da-	.	.	.	.
2r	.	1d	-bit	2D	-bis,	.	.
2BB-/	cir-	.	.	2D	Scu-	.	.
=69	=69	=69	=69	=69	=69	=69	=69
2AA/	-cum-	1c	te	1A	-to	0r	.
2AA/	-da-	.	.	.	.	.	.
1D	-bit	2.A/	ve-	2r	.	.	.
.	.	.	.	2F/	cir-	.	.
.	.	4B-\	-ri-	.	.	.	.
=70	=70	=70	=70	=70	=70	=70	=70
1C	te	1c	-tas,	2E/	-cum-	0r	.
.	.	.	.	2E/	-da-	.	.
2.AA/	ve-	2.C/	ve-	1A	-bit	.	.
4BB-/	-ri-	4D/	-ri-	.	.	.	.
=71	=71	=71	=71	=71	=71	=71	=71
1C	-tas,	1E	-tas,	2G/	te	0r	.
.	.	.	.	2c\	ve-	.	.
2.AA/	ve-	2.C/	ve-	2c\	-ri-	.	.
.	.	.	.	[2c\	-tas	.	.
4BB-/	-ri-	4D/	-ri-	.	.	.	.
=72	=72	=72	=72	=72	=72	=72	=72
2C/	-tas	2E/	-tas,	4c\]	.	0r	.
.	.	.	.	4B-\	.	.	.
2D\	.	2F/	.	1A	e-	.	.
1BB-	e-	1D	e-	.	.	.	.
.	.	.	.	2G/	.	.	.
=73	=73	=73	=73	=73	=73	=73	=73
1AA	-jus;	2E/	-jus;	2A/	-jus;	0r	.
.	.	2A/	non	2c\	non	.	.
2r	.	2G/	ti-	2B-\	ti-	.	.
2AA/	non	[2A/	-me-	[2c\	-me-	.	.
=74	=74	=74	=74	=74	=74	=74	=74
1C	ti-	2A/]	.	2c\]	.	0r	.
.	.	4G/	.	4B-\	.	.	.
.	.	4F/	.	4A/	.	.	.
1C	-me-	1E	-bis	1G	-bis,	.	.
=75	=75	=75	=75	=75	=75	=75	=75
1GG	-bis	2r	.	2r	.	0r	.
.	.	2d\	a	2B-\	a	.	.
2r	.	2c\	ti-	2A/	ti-	.	.
2GG/	a	[2d\	-mo-	[2B-\	-mo-	.	.
=76	=76	=76	=76	=76	=76	=76	=76
1D	ti-	2d\]	.	2B-\]	.	0r	.
.	.	4c\	.	4A/	.	.	.
.	.	4B-\	.	4G/	.	.	.
1D	-mo-	1A	-re	[1F	-re	.	.
=77	=77	=77	=77	=77	=77	=77	=77
2.AA/	-re	2.c\	noc-	2F/]	.	0r	.
.	.	.	.	4E/	.	.	.
4BB-/	.	4B-\	.	4D/	.	.	.
2C/	.	4A/	.	2E/	.	.	.
.	.	4G/	.	.	.	.	.
[2D\	noc-	[2B-\	.	[2F/	no-	.	.
=78	=78	=78	=78	=78	=78	=78	=78
2D\]	.	4B-\]	.	4F/]	.	0r	.
.	.	4A/	.	4E/	.	.	.
2BB-/	.	1G	-tur-	1D	-tur-	.	.
1AA	-tur-	.	.	.	.	.	.
.	.	2F#i/	.	2C/	.	.	.
=79	=79	=79	=79	=79	=79	=79	=79
[0GG	-no.	[0G	-no.	0D	-no.	1r	.
.	.	.	.	.	.	1g	A
=80	=80	=80	=80	=80	=80	=80	=80
0GG]	.	0G]	.	1r	.	1.b-	sa-
.	.	.	.	1d	A	.	.
.	.	.	.	.	.	2b-\	-git-
=81	=81	=81	=81	=81	=81	=81	=81
0D	.	1r	.	1.f	sa-	2a/	-ta
.	.	.	.	.	.	2f/	vo-
.	.	1A	A	.	.	1a	-lan-
.	.	.	.	2f\	-git	.	.
=82	=82	=82	=82	=82	=82	=82	=82
1r	.	1.c	sa-	2e-i\	-ta	1g	-te
.	.	.	.	2c\	vo-	.	.
1C	A	.	.	1e-i	-lan-	1g	in
.	.	2c\	-git-	.	.	.	.
=83	=83	=83	=83	=83	=83	=83	=83
1.G	sa-	2B-\	-ta	1d	-te	1b-	di-
.	.	2G/	vo-	.	.	.	.
.	.	2.d\	-lan-	1B-	in	1b-	-e,
2G\	-git	.	.	.	.	.	.
.	.	4e\	.	.	.	.	.
=84	=84	=84	=84	=84	=84	=84	=84
2.F\	-ta	0f	-te	1c	di-	1a	a
4E\	vo-	.	.	.	.	.	.
1D	-lan-	.	.	1d	-e,	1a	ne-
=85	=85	=85	=85	=85	=85	=85	=85
1GG	-te	1r	.	2.B-\	a	1.b-	-go-
.	.	.	.	4c\	ne-	.	.
1G	in	1B-	in	2d\	-go-	.	.
.	.	.	.	2e\	-ti-	2b-\	-ti-
=86	=86	=86	=86	=86	=86	=86	=86
1F	di-	1c	di-	1f	-o	1a	-o
1D	-e,	1d	-e,	1f	per-	1a	per-
=87	=87	=87	=87	=87	=87	=87	=87
2G\	a	2.B-\	a	2d\	-am-	2b-\	-am-
2G\	ne-	.	.	2d\	-bu-	2b-\	-bu-
.	.	4c\	ne-	.	.	.	.
2G\	-go-	2d\	-go-	1B-	-lan-	1b-	-lan-
2G\	-ti-	2e\	-ti-	.	.	.	.
=88	=88	=88	=88	=88	=88	=88	=88
1F	-o	1f	-o	1c	-te	1a	-te
1D	per-	1f	per-	1d	in	2a/	in
.	.	.	.	.	.	[2b-\	te-
=89	=89	=89	=89	=89	=89	=89	=89
2E-\	-am-	2B-\	-am-	1.G	te-	4b-\]	.
.	.	.	.	.	.	4a/	.
2E-i\	-bu-	2B-\	-bu-	.	.	4g/	.
.	.	.	.	.	.	4f/	.
1E-i	-lan-	1c	-lan-	.	.	2g/	.
.	.	.	.	2G/	-ne-	2g/	-ne-
=90	=90	=90	=90	=90	=90	=90	=90
1D	-te	1d	-te	1A	-bris,	1f	-bris,
1BB-	in	1d	in	1D	in	2f/	in
.	.	.	.	.	.	[2g/	te-
=91	=91	=91	=91	=91	=91	=91	=91
1.C	te-	2.G/	te-	1.E	te-	4g/]	.
.	.	.	.	.	.	4f/	.
.	.	.	.	.	.	4e/	.
.	.	4F/	.	.	.	4d/	.
.	.	2G/	.	.	.	2e/	.
2C/	-ne-	2A/	-ne-	2E/	-ne-	2e/	-ne-
=92	=92	=92	=92	=92	=92	=92	=92
0BB-	-bris,	1B-	-bris,	0F	-bris,	1d	-bris,
.	.	1r	.	.	.	1f	ab
=93	=93	=93	=93	=93	=93	=93	=93
0r	.	1B-	ab	0r	.	1g	in-
.	.	1c	in-	.	.	1g	-cur-
=94	=94	=94	=94	=94	=94	=94	=94
0r	.	1c	-cur-	0r	.	1a	-su,
.	.	1d	-su,	.	.	1f	et
=95	=95	=95	=95	=95	=95	=95	=95
0r	.	1B-	et	0r	.	1g	de-
.	.	1c	de-	.	.	[1a	-mo-
=96	=96	=96	=96	=96	=96	=96	=96
0r	.	1.d	-mo-	0r	.	2a/]	.
.	.	.	.	.	.	2a/	-ni-
.	.	.	.	.	.	1a	-o
.	.	2d\	-ni-	.	.	.	.
=97	=97	=97	=97	=97	=97	=97	=97
0r	.	1.d	-o	0r	.	1a	me-
.	.	.	.	.	.	2.b-\	-ri-
.	.	2B-\	me-	.	.	.	.
.	.	.	.	.	.	4a/	.
=98	=98	=98	=98	=98	=98	=98	=98
0r	.	2e-i\	-ri-	0r	.	2g/	.
.	.	2d\	-di-	.	.	2f/	-di-
.	.	1c	-a-	.	.	1e-i	-a-
=99	=99	=99	=99	=99	=99	=99	=99
1r	.	0d	-no,	1F	ab	0d	-no,
1BB-	ab	.	.	1G	in-	.	.
=100	=100	=100	=100	=100	=100	=100	=100
1C	in-	0r	.	1G	-cur-	0r	.
1C	-cur-	.	.	1A	-su,	.	.
=101	=101	=101	=101	=101	=101	=101	=101
1D	-su,	1r	.	1F	et	0r	.
1BB-	et	1D	et	1G	de-	.	.
=102	=102	=102	=102	=102	=102	=102	=102
1C	de-	1E	de-	1.A	-mo-	0r	.
[1D	-mo-	[1F	-mo-	.	.	.	.
.	.	.	.	2A/	-ni-	.	.
=103	=103	=103	=103	=103	=103	=103	=103
2D\]	.	2F/]	.	2B-\	-o	0r	.
2D\	-ni-	2F/	-ni-	2A/	.	.	.
2.E-\	-o	2.G/	-o	2.c\	.	.	.
4D\	me-	4F/	me-	4B-\	me-	.	.
=104	=104	=104	=104	=104	=104	=104	=104
2C/	-ri-	2E-i/	-ri-	2A/	-ri-	0r	.
2BB-/	-di-	2D/	-di-	2G/	-di-	.	.
1AA	-a-	1C	-a-	1F#i	-a-	.	.
=105	=105	=105	=105	=105	=105	=105	=105
0GG	-no,	1D	-no,	0G	-no.	1b-	et
.	.	1B-	et	.	.	1g	de-
=106	=106	=106	=106	=106	=106	=106	=106
0r	.	1c	de-	0r	.	1.a	-mo-
.	.	[1d	-mo-	.	.	.	.
.	.	.	.	.	.	2a/	-ni-
=107	=107	=107	=107	=107	=107	=107	=107
0r	.	2d\]	.	0r	.	2b-\	-o
.	.	2d\	-ni-	.	.	2a/	.
.	.	2.e-\	-o	.	.	2.cc\	.
.	.	4d\	me-	.	.	4b-\	me-
=108	=108	=108	=108	=108	=108	=108	=108
0r	.	2c\	-ri-	0r	.	2a/	-ri-
.	.	2B-\	-di-	.	.	2g/	-di-
.	.	1A	-a-	.	.	1f#i	-a-
=109	=109	=109	=109	=109	=109	=109	=109
1G	Ca-	0G	-no.	1r	.	0g	-no.
[1B-	-dent	.	.	1d	Ca-	.	.
=110	=110	=110	=110	=110	=110	=110	=110
2B-\]	.	0r	.	1.f	-dent	0r	.
2B-\	a	.	.	.	.	.	.
2A\	la-	.	.	.	.	.	.
2F\	-te-	.	.	2f\	a	.	.
=111	=111	=111	=111	=111	=111	=111	=111
2G\	-re	0r	.	2e\	la-	0r	.
2A\	tu-	.	.	2c\	-te-	.	.
2D\	-o	.	.	2d\	-re	.	.
[2A\	mil-	.	.	2e\	tu-	.	.
=112	=112	=112	=112	=112	=112	=112	=112
4A\]	.	0r	.	2c\	-o	0r	.
4G\	.	.	.	.	.	.	.
2F\	.	.	.	1d	mil-	.	.
1E	.	.	.	.	.	.	.
.	.	.	.	2c#i\	.	.	.
=113	=113	=113	=113	=113	=113	=113	=113
0D	-le,	1A	Ca-	0d	-le,	1r	.
.	.	[1B-	-dent	.	.	1d	Ca-
=114	=114	=114	=114	=114	=114	=114	=114
0r	.	2B-\]	.	0r	.	1.f	-dent
.	.	2B-\	a	.	.	.	.
.	.	2A/	la-	.	.	.	.
.	.	2F/	-te-	.	.	2f/	a
=115	=115	=115	=115	=115	=115	=115	=115
0r	.	2G/	-re-	0r	.	2e/	la-
.	.	2A/	tu-	.	.	2c/	-te-
.	.	[1B-	-o	.	.	2.d/	-re-
.	.	.	.	.	.	4e/	tu-
=116	=116	=116	=116	=116	=116	=116	=116
0r	.	2B-\]	.	0r	.	2f/	-o
.	.	2G/	mil-	.	.	2.g/	mil-
.	.	1A	.	.	.	.	.
.	.	.	.	.	.	4f#i/	.
.	.	.	.	.	.	4f#i/	.
.	.	.	.	.	.	4e/	.
=117	=117	=117	=117	=117	=117	=117	=117
1G	et	0G	-le...	1r	.	0g	-le,
[1B-	de-	.	.	1d	et	.	.
=118	=118	=118	=118	=118	=118	=118	=118
2B-\]	.	0r	.	1.f	de-	0r	.
2B-\	-cem	.	.	.	.	.	.
2B-\	mil-	.	.	.	.	.	.
2B-\	-li-	.	.	2f\	-cem	.	.
=119	=119	=119	=119	=119	=119	=119	=119
2A\	-a	0r	.	2f\	mil-	0r	.
2F\	a	.	.	2f\	-li-	.	.
2G\	dex-	.	.	2e\	-a	.	.
2A\	-tris	.	.	2c\	a	.	.
=120	=120	=120	=120	=120	=120	=120	=120
2.F\	tu-	0r	.	2d\	dex-	1r	.
.	.	.	.	2A/	-tris	.	.
4D\	.	.	.	.	.	.	.
1D	-is;	.	.	1d	tu-	1a	ad
=121	=121	=121	=121	=121	=121	=121	=121
0r	.	1.A	ad	0c	-is;	1.cc	te
.	.	2A/	te-	.	.	2a/	au-
=122	=122	=122	=122	=122	=122	=122	=122
1r	.	2.G/	au-	1d	ad	1b-	.
.	.	4F/	.	.	.	.	.
2r	.	1D	-tem	[1f	te	1a	-tem
[2D\	ad	.	.	.	.	.	.
=123	=123	=123	=123	=123	=123	=123	=123
2D\]	.	0r	.	2f\]	.	2r	.
2D\	te	.	.	2d\	au-	2f/	non
2.C/	au-	.	.	1e-i	.	2g/	ap-
.	.	.	.	.	.	2a/	-pro-
4BB-/	.	.	.	.	.	.	.
=124	=124	=124	=124	=124	=124	=124	=124
1GG	-tem	0r	.	2d\	-tem	1b-	-pin-
.	.	.	.	2B-\	non	.	.
1r	.	.	.	2c\	ap-	1a	-qua-
.	.	.	.	2d\	-pro-	.	.
=125	=125	=125	=125	=125	=125	=125	=125
2r	.	2r	.	1e-i	-pin-	1g	-bit.
2C/	non	2E-i/	non	.	.	.	.
2D\	ap-	2F/	ap-	1d	-qua-	1r	.
2BB-/	-pro-	2D/	-pro-	.	.	.	.
=126	=126	=126	=126	=126	=126	=126	=126
1C	-pin-	2E/	-pin-	1c	-bit,	0r	.
.	.	2.G/	-qua-	.	.	.	.
1D	-qua-	.	.	2r	.	.	.
.	.	4F#i/	.	.	.	.	.
.	.	4F#i/	.	2A/	non	.	.
.	.	4Eni/	.	.	.	.	.
=127	=127	=127	=127	=127	=127	=127	=127
0GG	-bit.	0G	-bit.	2B-\	ap-	1r	.
.	.	.	.	2G/	-pro-	.	.
.	.	.	.	1B-	-pin-	2r	.
.	.	.	.	.	.	2d/	Ve-
=128	=128	=128	=128	=128	=128	=128	=128
0r	.	2r	.	1A	-qua-	2e/	-rum-
.	.	2D/	Ve-	.	.	2f/	-ta-
.	.	2.E/	-rum-	1G	-bit.	2g/	-men
.	.	.	.	.	.	2g/	o-
.	.	4F/	-ta-	.	.	.	.
=129	=129	=129	=129	=129	=129	=129	=129
2r	.	2G/	-men	0r	.	2b-\	-cu-
2GG/	Ve-	2D/	o-	.	.	2b-\	-lis
2.AA/	-rum-	2F/	-cu-	.	.	1a	tu-
.	.	2F/	-lis	.	.	.	.
4BB-/	-ta-	.	.	.	.	.	.
=130	=130	=130	=130	=130	=130	=130	=130
2C/	-men	1E	tu-	1r	.	1g	-is
2GG/	o-	.	.	.	.	.	.
2BB-/	-cu-	2D/	-is	2r	.	1r	.
2BB-/	-lis	2d\	con-	2D/	Ve-	.	.
=131	=131	=131	=131	=131	=131	=131	=131
1AA	tu-	2c\	-si-	2.E/	-rum	0r	.
.	.	2A/	-de-	.	.	.	.
.	.	.	.	4F/	ta-	.	.
1GG	-is	2.B-\	-ra-	2G/	-men	.	.
.	.	.	.	2G/	o-	.	.
.	.	4c\	.	.	.	.	.
=132	=132	=132	=132	=132	=132	=132	=132
1G	con-	2d\	-bis,	2B-\	-cu-	2r	.
.	.	2B-\	con-	2B-\	-lis	2g/	con-
2F\	-si-	2c\	-si-	1A	tu-	2a/	-si-
2D\	-de-	2d\	-de-	.	.	2f/	-de-
=133	=133	=133	=133	=133	=133	=133	=133
1E-	-ra-	2.B-\	-ra-	1G	-is	1g	-ra-
.	.	4c\	.	.	.	.	.
2D\	bis,	2d\	bis,	2r	.	2f/	bis,
2G\	con-	2B-\	con-	2G/	con-	2b-\	con-
=134	=134	=134	=134	=134	=134	=134	=134
2F\	-si-	2c\	-si-	2A/	-si-	2a/	-si-
2D\	-de-	2d\	-de-	2B-\	-de-	2f/	-de-
1E-i	-ra-	2.B-\	-ra-	2.G/	-ra-	1g	-ra-
.	.	4c\	.	4A/	.	.	.
=135	=135	=135	=135	=135	=135	=135	=135
2D\	-bis	2d\	-bis	2B-\	-bis	2f/	-bis
2BB-/	et	2d\	et	2B-\	et	2f/	et
2.E-i\	re-	2B-\	re-	2.G/	re-	2g/	re-
.	.	2c\	-tri-	.	.	2g/	-tri-
4E-i\	-tri-	.	.	4A/	-tri-	.	.
=136	=136	=136	=136	=136	=136	=136	=136
2D\	-bu-	2d\	-bu-	2B-\	-bu-	2f/	-bu-
2BB-/	-ti-	2d\	-ti-	2B-\	-ti-	2f/	-ti-
1E-i	-o-	2.B-\	-o-	1G	-o-	1g	-o-
.	.	4c\	.	.	.	.	.
=137	=137	=137	=137	=137	=137	=137	=137
2D\	-nem	2d\	-nem	2A/	-nem	2f/	-nem
2BB-/	pec-	2d\	pec-	2B-\	pec-	2f/	pec-
2E-i\	-ca-	2B-\	-ca-	2G/	-ca-	2g/	-ca-
2E-i\	-to-	2G/	-to-	2E-i/	-to-	2g/	-to-
=138	=138	=138	=138	=138	=138	=138	=138
2D\	-rum	2A/	-rum	2F/	-rum	2f/	-rum
2BB-/	vi-	2B-\	vi-	2G/	vi-	2d/	vi-
2.C/	-de-	2.G/	-de-	2.E-i/	-de-	1e-i	-de-
4BB-/	.	4A/	.	4F/	.	.	.
=139	=139	=139	=139	=139	=139	=139	=139
[0GG	-bis.	0B-	-bis.	[0G	-bis.	[0d	-bis.
=140	=140	=140	=140	=140	=140	=140	=140
0GG]	.	2r	.	0G]	.	0d_	.
.	.	2G/	Quo-	.	.	.	.
.	.	2B-\	-ni-	.	.	.	.
.	.	2G/	-am	.	.	.	.
=141	=141	=141	=141	=141	=141	=141	=141
1GG	Quo-	2B-\	tu	2r	.	0d]	.
.	.	2G/	es,	2G/	Quo-	.	.
2GG/	-ni-	2.B-\	do-	2D/	-ni-	.	.
2GG/	-am	.	.	2G/	-am	.	.
.	.	4c\	-mi-	.	.	.	.
=142	=142	=142	=142	=142	=142	=142	=142
2BB-/	tu	2d\	-nem	2F/	tu	2r	.
2GG/	es,	2B-\	spes	2G/	es,	2d/	Quo-
2.BB-/	do-	1B-	me-	2D/	do-	2d/	-ni-
.	.	.	.	2G/	-mi-	2d/	-am
4C/	-mi-	.	.	.	.	.	.
=143	=143	=143	=143	=143	=143	=143	=143
2D\	-ne,	2A/	-a,	0F	-ne,	2f/	tu
4BB-/	spes	2.f\	spes	.	.	2d/	es,
4C/	.	.	.	.	.	.	.
4D\	.	.	.	.	.	2.f/	do-
4E\	.	4e\	.	.	.	.	.
[2F\	.	[2d\	.	.	.	.	.
.	.	.	.	.	.	4g/	-mi-
=144	=144	=144	=144	=144	=144	=144	=144
2F\]	.	4d\]	.	1D	spes	2a/	-ne,
.	.	4c\	.	.	.	.	.
2D\	me-	1B-	me-	.	.	2f/	spes
1C	.	.	.	1E	me-	1e	me-
.	.	2A/	.	.	.	.	.
=145	=145	=145	=145	=145	=145	=145	=145
1BB-	-a;	1B-	-a;	2F/	-a;	1d	-a;
.	.	.	.	2D/	al-	.	.
2r	.	2r	.	2.G/	-tis-	2r	.
2GG/	al-	2B-\	al-	.	.	2g/	al-
.	.	.	.	4G/	-si-	.	.
=146	=146	=146	=146	=146	=146	=146	=146
2.C/	-tis-	2.e-i\	-tis-	2G/	-mum	2.g/	-tis-
.	.	.	.	2E-i/	po-	.	.
4C/	-si-	4e-i\	-si-	.	.	4a/	-si-
2BB-/	-mum	2d\	-mum	2F/	-su-	2b-\	-mum
2GG/	po-	2B-\	po-	[2G/	-is-	2b-\	po-
=147	=147	=147	=147	=147	=147	=147	=147
1C	-su-	1e-i	-su-	2G/]	.	1g	-su-
.	.	.	.	2G/	-ti,	.	.
1C	-is-	1e-i	-is-	2.E-i/	po-	1cc	-is-
.	.	.	.	4F/	-su-	.	.
=148	=148	=148	=148	=148	=148	=148	=148
0GG	-ti	2d\	-ti	1G	-is-	1b-	-ti
.	.	2G/	re-	.	.	.	.
.	.	2B-\	-fu-	1G	-ti	2g/	re-
.	.	2G/	-gi-	.	.	2b-\	-fu-
=149	=149	=149	=149	=149	=149	=149	=149
1r	.	1d	-um,	1G	re-	2g/	-gi-
.	.	.	.	.	.	2.b-\	-um
2G\	re-	1r	.	1d	-fu-	.	.
.	.	.	.	.	.	4a/	.
2B-\	-fu-	.	.	.	.	2f/	.
=150	=150	=150	=150	=150	=150	=150	=150
2G\	-gi-	0r	.	2B-\	-gi-	1g	tu-
2.B-\	-um	.	.	2.d\	-um	.	.
.	.	.	.	.	.	1d	-um,
4A\	.	.	.	4c\	.	.	.
2F\	.	.	.	2A/	.	.	.
=151	=151	=151	=151	=151	=151	=151	=151
1G	tu-	2r	.	1B-	tu-	0r	.
.	.	2d\	re-	.	.	.	.
1D	-um,	2f\	-fu-	1A	-um,	.	.
.	.	2d\	-gi-	.	.	.	.
=152	=152	=152	=152	=152	=152	=152	=152
0r	.	1f	-um	2d\	re-	2r	.
.	.	.	.	2f\	-fu-	2d/	re-
.	.	1B-	tu-	2d\	-gi-	2f/	-fu-
.	.	.	.	[2f\	-um	2d/	-gi-
=153	=153	=153	=153	=153	=153	=153	=153
2D\	re-	1A	-um,	4f\]	.	1a	-um
.	.	.	.	4e\	.	.	.
2F\	-fu-	.	.	2c\	.	.	.
2D\	-gi-	2r	.	1d	tu-	2r	.
[2F\	-um	[2A/	tu-	.	.	[2a/	tu-
=154	=154	=154	=154	=154	=154	=154	=154
4F\]	.	4A/]	.	[0Al	-um.	4a/]	.
4E\	.	4B-\	.	.	.	4g/	.
2C/	.	2c\	.	.	.	2e/	.
1D	tu-	1F	.	.	.	1f	.
=155	=155	=155	=155	=155	=155	=155	=155
0AAl	-um.	0cl	-um.	0A]	.	0e	-um.
!!LO:LB:i:g=z
=156||	=156||	=156||	=156||	=156||	=156||	=156||	=156||
*>B	*	*>B	*	*>B	*	*>B	*
*clefF4	*	*clefGv2	*	*clefGv2	*	*clefG2	*
*k[b-]	*	*k[b-]	*	*k[b-]	*	*k[b-]	*
*M3/1	*	*M3/1	*	*M3/1	*	*M3/1	*
*met(C|3)	*	*met(C|3)	*	*met(C|3)	*	*met(C|3)	*
!!!OMD: Secunda pars&colon; Non accedet ad te malum
!!section: Secunda pars&colon; Non accedet ad te malum
0.r	.	0.r	.	0.r	.	1g	Non
.	.	.	.	.	.	1g	ac-
.	.	.	.	.	.	1g	-ce-
=157	=157	=157	=157	=157	=157	=157	=157
0.r	.	1G	Non	0.r	.	0b-	-det
.	.	1G	ac-	.	.	.	.
.	.	1G	-ce-	.	.	1g	ad
=158	=158	=158	=158	=158	=158	=158	=158
0.r	.	0B-	-det	0.r	.	1f	te
.	.	.	.	.	.	0b-	ma-
.	.	1G	ad	.	.	.	.
=159	=159	=159	=159	=159	=159	=159	=159
1D	Non	1F	te	0.r	.	0a	-lum,
1D	ac-	0d	ma-	.	.	.	.
1D	-ce-	.	.	.	.	1r	.
=160	=160	=160	=160	=160	=160	=160	=160
0F	-det	1.c	.	1A	Non	0.r	.
.	.	.	.	1A	ac-	.	.
.	.	2F/	.	.	.	.	.
1D	ad	1F	-lum,	1A	-ce-	.	.
=161	=161	=161	=161	=161	=161	=161	=161
1C	te	0.r	.	0c	-det	0.r	.
0F	ma-	.	.	.	.	.	.
.	.	.	.	1A	ad	.	.
=162	=162	=162	=162	=162	=162	=162	=162
1E	.	0.r	.	1G	te	1g	et
1.C	.	.	.	0c	ma-	1g	fla-
.	.	.	.	.	.	1g	-gel-
2BB-/	.	.	.	.	.	.	.
=163	=163	=163	=163	=163	=163	=163	=163
0.GG	-lum,	1G	et	0B-	-lum,	0b-	-lum
.	.	1G	fla-	.	.	.	.
.	.	1G	-gel-	1r	.	1g	non
=164	=164	=164	=164	=164	=164	=164	=164
0.r	.	1.B-	-lum,	1d	et	1f	ap-
.	.	.	.	1d	fla-	1.b-	-pro-
.	.	2A/	.	.	.	.	.
.	.	1G	.	1d	-gel-	.	.
.	.	.	.	.	.	2b-\	-pin-
=165	=165	=165	=165	=165	=165	=165	=165
1D	et	0F	.	0f	-lum	1a	-qua-
1D	fla-	.	.	.	.	1f	-bit
1D	-gel-	1r	.	1d	non	1r	.
=166	=166	=166	=166	=166	=166	=166	=166
0F	-lum	1A	et	1c	ap-	0.r	.
.	.	1A	fla-	1.f	-pro-	.	.
1D	non	1A	-gel-	.	.	.	.
.	.	.	.	2f\	-pin-	.	.
=167	=167	=167	=167	=167	=167	=167	=167
1C	ap-	0c	-lum	1e	-qua-	0.r	.
1.F	-pro-	.	.	1c	-bit	.	.
.	.	1A	non	1r	.	.	.
2F\	-pin-	.	.	.	.	.	.
=168	=168	=168	=168	=168	=168	=168	=168
1E	-qua-	1G	ap-	0.r	.	0.r	.
0C	-bit	1.c	-pro-	.	.	.	.
.	.	2c\	-pin-	.	.	.	.
=169	=169	=169	=169	=169	=169	=169	=169
1.G	ta-	1B-	-qua-	1.d	ta-	0.r	.
.	.	1G	-bit	.	.	.	.
2G\	-ber-	.	.	2d\	-ber-	.	.
1G	-na-	1B-	ta-	1d	-na-	.	.
=170	=170	=170	=170	=170	=170	=170	=170
1F	-cu-	1A	-ber-	1d	-cu-	0.r	.
1.G	-lo	1B-	-na-	1.d	-lo	.	.
.	.	1G	-cu-	.	.	.	.
2E\	.	.	.	2c\	.	.	.
=171	=171	=171	=171	=171	=171	=171	=171
1F	.	1A	-lo	1d	.	0.r	.
0G	tu-	0B-	tu-	1.e-i	tu-	.	.
.	.	.	.	2d\	.	.	.
=172	=172	=172	=172	=172	=172	=172	=172
0.D	-o.	0A	-o,	[0.d	-o.	1.a	ta-
.	.	.	.	.	.	2a/	-ber-
.	.	1F	ta-	.	.	1a	-na-
=173	=173	=173	=173	=173	=173	=173	=173
0.r	.	1D	-ber-	0.d_	.	1a	-cu-
.	.	1.G	-na-	.	.	1.b-	-lo
.	.	2G/	-cu-	.	.	2g/	.
=174	=174	=174	=174	=174	=174	=174	=174
0.r	.	1F	-lo	0.d]	.	1a	.
.	.	0G	tu-	.	.	0b-	tu-
=175	=175	=175	=175	=175	=175	=175	=175
0.r	.	[0.D	-o.	1d	Quo-	0a	-o.
.	.	.	.	1d	-ni-	.	.
.	.	.	.	1d	-am	1r	.
=176	=176	=176	=176	=176	=176	=176	=176
0.r	.	0.D]	.	0f	an-	1a	Quo-
.	.	.	.	.	.	1a	-ni-
.	.	.	.	1d	-ge-	1a	-am
=177	=177	=177	=177	=177	=177	=177	=177
0.r	.	0.r	.	1c	-lis	0cc	an-
.	.	.	.	0f	su-	.	.
.	.	.	.	.	.	1a	-ge-
=178	=178	=178	=178	=178	=178	=178	=178
0.r	.	0.r	.	0e-i	-is	1g	-lis
.	.	.	.	.	.	0cc	su-
.	.	.	.	1c	de-	.	.
=179	=179	=179	=179	=179	=179	=179	=179
0.r	.	0.r	.	1d	-us	1b-	-is
.	.	.	.	1e-i	man-	1g	de-
.	.	.	.	1c	-da-	1a	-us
=180	=180	=180	=180	=180	=180	=180	=180
0.r	.	0.r	.	1d	-vit	1.b-	man-
.	.	.	.	1.B-	de-	.	.
.	.	.	.	.	.	2a/	.
.	.	.	.	.	.	1g	-da-
.	.	.	.	2c\	.	.	.
=181	=181	=181	=181	=181	=181	=181	=181
*M2/1	*	*M2/1	*	*M2/1	*	*	*
*met(C|)	*	*met(C|)	*	*met(C|)	*	*	*
!!primary-mensuration: met(C|)
1D	Ut	1r	.	0d	-te,	3%2f	-vit
.	.	.	.	.	.	3%4b-	de
1G	cus-	2r	.	.	.	.	.
.	.	[2d\	Ut	.	.	.	.
=182	=182	=182	=182	=182	=182	=182	=182
*	*	*	*	*	*	*M2/1	*
*	*	*	*	*	*	*met(C|)	*
2F\	-to-	2d\]	.	1r	.	0a	-te,
2D\	-di-	2d\	cus-	.	.	.	.
2.F\	-ant	2c\	-to-	2r	.	.	.
.	.	2A/	-di-	[2c\	ut	.	.
4E\	.	.	.	.	.	.	.
=183	=183	=183	=183	=183	=183	=183	=183
2C/	te	2.c\	-ant	2c\]	.	2r	.
2C/	in	.	.	2c\	cus-	1g	ut
.	.	4B-\	.	.	.	.	.
2.E-\	om-	2G/	te	2B-\	-to-	.	.
.	.	2B-\	in	2G/	-di-	2g/	cus-
4E-i\	-ni-	.	.	.	.	.	.
=184	=184	=184	=184	=184	=184	=184	=184
2D\	-bus	2B-\	om-	2.B-\	-ant	2f/	-to-
4BB-/	vi-	2B-\	-ni-	.	.	2d/	-di-
4C/	.	.	.	4A/	.	.	.
4D\	.	2A/	-bus	2F/	te	2.f/	-ant
4E-i\	.	.	.	.	.	.	.
[2F\	.	4F/	vi-	2A/	in	.	.
.	.	4G/	.	.	.	4e/	.
=185	=185	=185	=185	=185	=185	=185	=185
2F\]	.	4A/	.	2.A/	om-	2c/	te
.	.	4B-\	.	.	.	.	.
2C/	-is	2.c\	.	.	.	2c/	in
.	.	.	.	4A/	-ni-	.	.
1E-i	tu-	.	.	4G/	.	2.g/	om-
.	.	4B-\	.	4A/	.	.	.
.	.	2G/	-is	4B-\	.	.	.
.	.	.	.	4c\	.	4g/	-ni-
=186	=186	=186	=186	=186	=186	=186	=186
2D\	-is,	1B-	tu-	2d\	-bus	2f/	-bus
4BB-/	vi-	.	.	2.f\	vi-	4d/	vi-
4C/	.	.	.	.	.	4e/	.
4D\	.	1A	-is,	.	.	4f/	.
4E\	.	.	.	4e\	.	4g/	.
2F\	.	.	.	4d\	.	[2a/	-is
.	.	.	.	4c\	.	.	.
=187	=187	=187	=187	=187	=187	=187	=187
2G\	.	2d\	vi-	2B-\	.	4a/]	.
.	.	.	.	.	.	4g/	.
2C/	-is	2e-i\	.	2c\	-is	1g	tu-
1D	tu-	1d	-is	1A	tu-	.	.
.	.	.	.	.	.	2f#i/	.
=188	=188	=188	=188	=188	=188	=188	=188
1GG	-is.	1.B-	tu-	0G	-is.	0g	-is.
2r	.	.	.	.	.	.	.
2G\	In	4A/	.	.	.	.	.
.	.	4G/	.	.	.	.	.
=189	=189	=189	=189	=189	=189	=189	=189
2.G\	ma-	1B-	.	2r	.	0r	.
.	.	.	.	2d\	In	.	.
4G\	-ni-	.	.	.	.	.	.
2F\	-bus	1A	-is.	2.d\	ma-	.	.
2D\	por-	.	.	.	.	.	.
.	.	.	.	4d\	-ni-	.	.
=190	=190	=190	=190	=190	=190	=190	=190
1F	-ta-	0r	.	2c\	-bus	0r	.
.	.	.	.	2A/	por-	.	.
1E-	-bunt	.	.	1c	-ta-	.	.
=191	=191	=191	=191	=191	=191	=191	=191
0D	te,	2r	.	1B-	-bunt	1r	.
.	.	2d\	In	.	.	.	.
.	.	2.d\	ma-	1A	te,	2r	.
.	.	.	.	.	.	2a/	In
.	.	4d\	-ni-	.	.	.	.
=192	=192	=192	=192	=192	=192	=192	=192
0r	.	2c\	-bus	0r	.	2.a/	ma-
.	.	2A/	por-	.	.	.	.
.	.	.	.	.	.	4a/	-ni-
.	.	1c	-ta-	.	.	2g/	-bus
.	.	.	.	.	.	2e/	por-
=193	=193	=193	=193	=193	=193	=193	=193
2r	.	1B-	-bunt	2r	.	1g	-ta-
2GG/	ne	.	.	2G/	ne	.	.
1D	for-	1A	te,	2A/	for-	1f	-bunt
.	.	.	.	2F/	-te	.	.
=194	=194	=194	=194	=194	=194	=194	=194
2C/	-te	2r	.	2G/	of-	1e	te,
2AA/	of-	2c\	ne	1A	-fen-	.	.
1BB-	-fen-	1d	for-	.	.	1r	.
.	.	.	.	2G/	.	.	.
=195	=195	=195	=195	=195	=195	=195	=195
1AA	-das	2c\	-te	1A	-das	2r	.
.	.	2A/	of-	.	.	2e/	ne
2r	.	1B-	-fen-	1r	.	1g	for-
2GG/	ad	.	.	.	.	.	.
=196	=196	=196	=196	=196	=196	=196	=196
2.D\	la-	0A	-das,	2r	.	2f/	-te,
.	.	.	.	2F/	ad	2d/	of-
4D\	-pi-	.	.	.	.	.	.
2C/	-dem	.	.	2.c\	la-	1e	-fen-
2AA/	.	.	.	.	.	.	.
.	.	.	.	4c\	-pi-	.	.
=197	=197	=197	=197	=197	=197	=197	=197
4BB-/	pe-	1.D	of-	1.d	-dem	0d	-das
4C/	.	.	.	.	.	.	.
4D\	.	.	.	.	.	.	.
4E\	.	.	.	.	.	.	.
4F\	.	.	.	.	.	.	.
4G\	.	.	.	.	.	.	.
[2A\	.	4E/	.	2c\	pe-	.	.
.	.	4F/	.	.	.	.	.
=198	=198	=198	=198	=198	=198	=198	=198
4A\]	.	2G/	-fen-	2.B-\	-dem	0r	.
4G\	-dem	.	.	.	.	.	.
1G	tu-	2E/	.	.	.	.	.
.	.	.	.	4G/	.	.	.
.	.	1D	-das	1A	tu-	.	.
2F#i\	.	.	.	.	.	.	.
=199	=199	=199	=199	=199	=199	=199	=199
0G	-um.	1r	.	0G	-um.	2r	.
.	.	.	.	.	.	2d/	ad
.	.	2r	.	.	.	2B-/	la-
.	.	2d\	ad	.	.	2G/	-pi-
=200	=200	=200	=200	=200	=200	=200	=200
0r	.	2B-\	la-	0r	.	2.d/	-dem
.	.	2G/	-pi-	.	.	.	.
.	.	.	.	.	.	4e/	.
.	.	1d	-dem	.	.	4f/	.
.	.	.	.	.	.	4g/	.
.	.	.	.	.	.	[2a/	pe-
=201	=201	=201	=201	=201	=201	=201	=201
0r	.	2c\	pe-	0r	.	4a/]	.
.	.	.	.	.	.	4g/	-dem
.	.	2B-\	-dem	.	.	1g	tu-
.	.	1A	tu-	.	.	.	.
.	.	.	.	.	.	2f#i/	.
=202	=202	=202	=202	=202	=202	=202	=202
1r	.	0G	-um.	0r	.	0g	-um.
[1G	Su-	.	.	.	.	.	.
=203	=203	=203	=203	=203	=203	=203	=203
2G\]	.	0r	.	1.d	Su-	0r	.
2G\	-per	.	.	.	.	.	.
2F\	as-	.	.	.	.	.	.
2G\	-pi-	.	.	2d\	-per	.	.
=204	=204	=204	=204	=204	=204	=204	=204
2C/	-dem	0r	.	2c\	as-	0r	.
1G	et	.	.	2d\	-pi-	.	.
.	.	.	.	2G/	-dem	.	.
2G\	ba-	.	.	[2d\	et	.	.
=205	=205	=205	=205	=205	=205	=205	=205
2F\	-si-	0r	.	2d\]	.	0r	.
2G\	-lis	.	.	2d\	ba-	.	.
2C/	cum	.	.	2c\	-si-	.	.
[2G\	am-	.	.	2d\	-lis-	.	.
=206	=206	=206	=206	=206	=206	=206	=206
2G\]	.	0r	.	2G/	-cum	0r	.
2G\	-bu-	.	.	2.d\	am-	.	.
1G	-la-	.	.	.	.	.	.
.	.	.	.	4c\	.	.	.
.	.	.	.	4B-\	-bu-	.	.
.	.	.	.	4A/	.	.	.
=207	=207	=207	=207	=207	=207	=207	=207
0D	-bis,	1.d	Su-	1B-	-la-	1r	.
.	.	.	.	1A	-bis,	[1a	Su-
.	.	2d\	-per	.	.	.	.
=208	=208	=208	=208	=208	=208	=208	=208
0r	.	2c\	as-	0r	.	2a/]	.
.	.	2d\	-pi-	.	.	2a/	-per
.	.	2G/	-dem	.	.	2g/	as-
.	.	[2d\	et	.	.	2a/	-pi-
=209	=209	=209	=209	=209	=209	=209	=209
0r	.	2d\]	.	0r	.	2d/	-dem
.	.	2d\	ba-	.	.	1a	et
.	.	2c\	-si-	.	.	.	.
.	.	2d\	-lis-	.	.	2a/	ba-
=210	=210	=210	=210	=210	=210	=210	=210
0r	.	2G/	cum	0r	.	2g/	-si-
.	.	1d	am-	.	.	2a/	-lis-
.	.	.	.	.	.	2d/	-cum
.	.	2d\	-bu-	.	.	[2a/	am-
=211	=211	=211	=211	=211	=211	=211	=211
0r	.	1d	-la-	0r	.	4a/]	.
.	.	.	.	.	.	4g/	.
.	.	.	.	.	.	4f/	-bu-
.	.	.	.	.	.	4e/	.
.	.	2A/	-bis,	.	.	1f	-lan-
.	.	2d\	et	.	.	.	.
=212	=212	=212	=212	=212	=212	=212	=212
0r	.	2c\	con-	0r	.	2e/	-bis,
.	.	2A/	-cul-	.	.	2a/	et
.	.	1c	-ca-	.	.	2g/	con-
.	.	.	.	.	.	2e/	-cul-
=213	=213	=213	=213	=213	=213	=213	=213
0r	.	2B-\	-bis,	0r	.	1g	-ca-
.	.	2G/	le-	.	.	.	.
.	.	1B-	-o-	.	.	2f/	-bis
.	.	.	.	.	.	2d/	le-
=214	=214	=214	=214	=214	=214	=214	=214
0r	.	2A/	-nem	0r	.	1f	-o-
.	.	4F/	et	.	.	.	.
.	.	4G/	.	.	.	.	.
.	.	4A/	.	.	.	2e/	-nem
.	.	4B-\	.	.	.	.	.
.	.	[2c\	.	.	.	4c/	et
.	.	.	.	.	.	4d/	.
=215	=215	=215	=215	=215	=215	=215	=215
0r	.	4c\]	.	0r	.	4e/	dra-
.	.	4B-\	.	.	.	4f/	.
.	.	2G/	dra-	.	.	1g	-co-
.	.	1A	-co-	.	.	.	.
.	.	.	.	.	.	2f#i/	.
=216	=216	=216	=216	=216	=216	=216	=216
2r	.	1G	-nem,	2r	.	2g/	-nem,
2G\	et	.	.	2d\	et	2b-\	et
2F\	con-	2r	.	2.f\	con-	2a/	con-
2D\	-cul-	2d\	et	.	.	2f/	-cul-
.	.	.	.	4f\	-cul-	.	.
=217	=217	=217	=217	=217	=217	=217	=217
1F	-ca-	2c\	con-	2f\	-ca-	1a	-ca-
.	.	2A/	-cul-	2c\	-bis	.	.
2E-\	-bis	1c	-ca-	2r	.	2g/	-bis
2C/	le-	.	.	2e-\	le-	2e/	le-
=218	=218	=218	=218	=218	=218	=218	=218
1E-i	-o-	2B-\	-bis	2e-i\	-o-	1g	-o-
.	.	2G/	le-	2B-\	-nem	.	.
2D\	-nem	2B-\	-o-	1d	et	2f/	-nem
2BB-/	et	2B-\	-nem	.	.	2d/	et
=219	=219	=219	=219	=219	=219	=219	=219
2C/	dra-	2A/	et	1c	dra-	2e/	dra-
2E-i\	.	2G/	dra-	.	.	2.g/	-co-
1D	-co-	1A	-co-	1d	-co-	.	.
.	.	.	.	.	.	4f#i/	.
.	.	.	.	.	.	4f#i/	.
.	.	.	.	.	.	4e/	.
=220	=220	=220	=220	=220	=220	=220	=220
1GG	-nem.	1G	-nem.	1B-	-nem.	1g	-nem.
2r	.	2r	.	2r	.	2r	.
2GG/	Quo-	2G/	Quo-	2B-\	Quo-	2d/	Quo-
=221	=221	=221	=221	=221	=221	=221	=221
2D\	-ni-	2F/	-ni-	2A/	-ni-	2d/	-ni-
2GG/	-am	2G/	-am	2B-\	-am	2d/	-am
2D\	in	2F/	in	2A/	in	2d/	in
2GG/	me	2G/	me	2B-\	me	2d/	me
=222	=222	=222	=222	=222	=222	=222	=222
1D	spe-	1F	spe-	2.A/	spe-	1f	spe-
.	.	.	.	4B-\	.	.	.
1C	-ra-	2.G/	-ra-	4c\	-ra-	1e	-ra-
.	.	.	.	4d\	.	.	.
.	.	.	.	4e\	.	.	.
.	.	4A/	.	4c\	.	.	.
=223	=223	=223	=223	=223	=223	=223	=223
1BB-	-vit,	1B-	-vit,	2d\	-vit,	1d	-vit,
.	.	.	.	2.f\	li-	.	.
2.B-\	li-	2.d\	li-	.	.	1r	.
.	.	.	.	4f\	-be-	.	.
.	.	.	.	2f\	-ra-	.	.
4A\	-be-	4c\	-be-	.	.	.	.
=224	=224	=224	=224	=224	=224	=224	=224
2G\	-ra-	2B-\	-ra-	2e\	-bo	0r	.
2F\	-bo	2A/	-bo	1d	e-	.	.
1E	e-	1G	e-	.	.	.	.
.	.	.	.	2c#i\	.	.	.
=225	=225	=225	=225	=225	=225	=225	=225
0D	-um,	1A	-um,	1d	-um;	1r	.
.	.	2.d\	li-	1r	.	2.f/	li-
.	.	4c\	-be-	.	.	4e/	-be-
=226	=226	=226	=226	=226	=226	=226	=226
0r	.	2B-\	-ra-	0r	.	2d/	-ra-
.	.	2A/	-bo	.	.	2c/	-bo
.	.	1G	e-	.	.	1B-	e-
=227	=227	=227	=227	=227	=227	=227	=227
1r	.	1A	-um;	1r	.	1A	-um;
2r	.	2r	.	1d	pro-	2r	.
2D\	pro-	2A/	pro-	.	.	2a/	pro-
=228	=228	=228	=228	=228	=228	=228	=228
2F\	-te-	2A/	-te-	2c\	-te-	2a/	-te-
2G\	-gam	2B-\	-gam	2B-\	-gam	2d/	-gam
1E	e-	1G	e-	1c	e-	1g	e-
=229	=229	=229	=229	=229	=229	=229	=229
1D	-um,	0A	-um,	1d	-um,	1f	-um,
2r	.	.	.	2r	.	2r	.
2D\	quo-	.	.	2d\	quo-	2f/	quo-
=230	=230	=230	=230	=230	=230	=230	=230
2E-i\	-ni-	2r	.	2G/	-ni-	2g/	-ni-
2D\	-am	2A/	quo-	1d	-am	2a/	-am
2BB-/	cog-	2B-\	-ni-	.	.	2d/	cog-
2C/	-no-	2A/	-am	2c\	cog-	2e/	-no-
=231	=231	=231	=231	=231	=231	=231	=231
2D\	-vit	2F/	cog-	2A/	-no-	2f/	-vit
2GG/	no-	2G/	-no-	1d	-vit	2d/	no-
1D	-men	2A/	-vit	.	.	2.f/	-men
.	.	2F/	no	2A/	no	.	.
.	.	.	.	.	.	4d/	.
=232	=232	=232	=232	=232	=232	=232	=232
2.C/	me-	1G	-men	4c\	-men	2e/	.
.	.	.	.	4d\	.	.	.
.	.	.	.	4e-i\	.	2.g/	me-
4E-i\	.	.	.	4c\	.	.	.
1D	.	1A	me-	1d	me-	.	.
.	.	.	.	.	.	4f#i/	.
.	.	.	.	.	.	4f#i/	.
.	.	.	.	.	.	4e/	.
=233	=233	=233	=233	=233	=233	=233	=233
0GG	-um.	0G	-um.	1B-	-um.	0g	-um.
.	.	.	.	2r	.	.	.
.	.	.	.	2G/	Cla-	.	.
=234	=234	=234	=234	=234	=234	=234	=234
2r	.	0r	.	4G/	-ma-	0r	.
.	.	.	.	4A/	.	.	.
2GG/	Cla-	.	.	4B-\	.	.	.
.	.	.	.	4c\	.	.	.
4GG/	-ma-	.	.	2d\	-vit	.	.
4AA/	.	.	.	.	.	.	.
4BB-/	.	.	.	4G/	ad	.	.
4C/	.	.	.	4A/	.	.	.
=235	=235	=235	=235	=235	=235	=235	=235
2D\	-vit	0r	.	4B-\	.	0r	.
.	.	.	.	4c\	.	.	.
4GG/	ad	.	.	1d	me,	.	.
4AA/	.	.	.	.	.	.	.
4BB-/	.	.	.	.	.	.	.
4C/	.	.	.	.	.	.	.
[2D\	me,	.	.	4c\	.	.	.
.	.	.	.	4B-\	.	.	.
=236	=236	=236	=236	=236	=236	=236	=236
2D\]	.	0r	.	2A/	.	0r	.
4C/	.	.	.	2d\	et	.	.
4BB-/	.	.	.	.	.	.	.
2AA/	.	.	.	2c\	e-	.	.
2D\	et	.	.	2A/	-go	.	.
=237	=237	=237	=237	=237	=237	=237	=237
2C/	e-	0r	.	2.c\	ex-	0r	.
2AA/	-go	.	.	.	.	.	.
.	.	.	.	4c\	-au-	.	.
2C/	ex-	.	.	2G/	-di-	.	.
2C/	-au-	.	.	2c\	-am	.	.
=238	=238	=238	=238	=238	=238	=238	=238
2GG/	-di-	0r	.	2B-\	e-	0r	.
2C/	-am	.	.	2G/	-um;	.	.
2BB-/	e-	.	.	2r	.	.	.
2GG/	-um;	.	.	2B-\	cum	.	.
=239	=239	=239	=239	=239	=239	=239	=239
2r	.	0r	.	2c\	ip-	0r	.
2BB-/	cum	.	.	2d\	-so	.	.
2C/	ip-	.	.	2G/	sum	.	.
2D\	-so	.	.	2d\	in	.	.
=240	=240	=240	=240	=240	=240	=240	=240
2GG/	sum	0r	.	2.d\	tri-	0r	.
2D\	in	.	.	.	.	.	.
.	.	.	.	4d\	-bu-	.	.
2.D\	tri-	.	.	2A/	-la-	.	.
.	.	.	.	2d\	-ti-	.	.
4D\	-bu-	.	.	.	.	.	.
=241	=241	=241	=241	=241	=241	=241	=241
2AA/	-la-	0r	.	2c\	-o-	0r	.
2D\	-ti-	.	.	2A/	-ne;	.	.
2C/	-o-	.	.	2.c\	e-	.	.
2AA/	-ne;	.	.	.	.	.	.
.	.	.	.	4c\	-ri-	.	.
=242	=242	=242	=242	=242	=242	=242	=242
2.C/	e-	0r	.	2G/	-pi-	0r	.
.	.	.	.	2c\	-am	.	.
4C/	-ri-	.	.	.	.	.	.
2GG/	-pi-	.	.	2B-\	e-	.	.
2C/	-am	.	.	2G/	-um,	.	.
=243	=243	=243	=243	=243	=243	=243	=243
2BB-/	e-	0r	.	2.d\	et	0r	.
2GG/	-um,	.	.	.	.	.	.
.	.	.	.	4d\	glo-	.	.
2.D\	et	.	.	2A/	-ri-	.	.
.	.	.	.	2d\	-fi-	.	.
4D\	glo-	.	.	.	.	.	.
=244	=244	=244	=244	=244	=244	=244	=244
2AA/	-ri-	0r	.	2c\	-ca-	0r	.
2D\	-fi-	.	.	2A/	-bo	.	.
2C/	-ca-	.	.	2.c\	e-	.	.
2AA/	-bo	.	.	.	.	.	.
.	.	.	.	4B-\	.	.	.
=245	=245	=245	=245	=245	=245	=245	=245
4C/	e-	0r	.	4A/	.	0r	.
4BB-/	.	.	.	4G/	.	.	.
4AA/	.	.	.	1G	.	.	.
4GG/	.	.	.	.	.	.	.
1AA	.	.	.	.	.	.	.
.	.	.	.	2F#i/	.	.	.
=246	=246	=246	=246	=246	=246	=246	=246
[0GG	-um.	1r	.	[0G	-um.	0r	.
.	.	[1G	Lon-	.	.	.	.
=247	=247	=247	=247	=247	=247	=247	=247
0GG_	.	2G/]	.	0G_	.	1r	.
.	.	2A/	-gi-	.	.	.	.
.	.	2B-\	-tu-	.	.	[1G	Lon-
.	.	2G/	-di-	.	.	.	.
=248	=248	=248	=248	=248	=248	=248	=248
0GG]	.	1.d	ne	0G]	.	2G/]	.
.	.	.	.	.	.	2A/	-gi-
.	.	.	.	.	.	2B-/	-tu-
.	.	2e\	di-	.	.	2G/	-di-
=249	=249	=249	=249	=249	=249	=249	=249
0r	.	2f\	-e	0r	.	1.d	-ne
.	.	1B-	.	.	.	.	.
.	.	4A/	.	.	.	2e/	di-
.	.	4G/	.	.	.	.	.
=250	=250	=250	=250	=250	=250	=250	=250
0r	.	2F/	-rum	0r	.	1f	-e-
.	.	2f\	re-	.	.	.	.
.	.	2d\	-ple-	.	.	1B-	-rum
.	.	[2f\	.	.	.	.	.
=251	=251	=251	=251	=251	=251	=251	=251
0r	.	4f\]	.	0r	.	2r	.
.	.	4e\	.	.	.	.	.
.	.	4d\	.	.	.	2f/	re-
.	.	4c\	.	.	.	.	.
.	.	2B-\	.	.	.	2d/	-ple-
.	.	4A/	.	.	.	[2f/	-bo
.	.	4G/	.	.	.	.	.
=252	=252	=252	=252	=252	=252	=252	=252
0r	.	2F/	-bo	0r	.	4f/]	.
.	.	.	.	.	.	4e/	.
.	.	1B-	e-	.	.	2d/	.
.	.	.	.	.	.	1c	e-
.	.	2A/	.	.	.	.	.
=253	=253	=253	=253	=253	=253	=253	=253
0r	.	0B-	-um,	1r	.	0B-	-um,
.	.	.	.	[1G	Lon-	.	.
=254	=254	=254	=254	=254	=254	=254	=254
1r	.	0r	.	2G/]	.	0r	.
.	.	.	.	2A/	-gi-	.	.
[1GG	Lon-	.	.	2B-\	-tu-	.	.
.	.	.	.	2G/	-di-	.	.
=255	=255	=255	=255	=255	=255	=255	=255
2GG/]	.	0r	.	1.d	-ne	0r	.
2AA/	-gi-	.	.	.	.	.	.
2BB-/	-tu-	.	.	.	.	.	.
2GG/	-di-	.	.	2e\	di-	.	.
=256	=256	=256	=256	=256	=256	=256	=256
1.D	-ne	0r	.	1f	-e-	0r	.
.	.	.	.	1B-	-rum	.	.
2E\	di-	.	.	.	.	.	.
=257	=257	=257	=257	=257	=257	=257	=257
1F	-e-	0r	.	2r	.	0r	.
.	.	.	.	2f\	re-	.	.
1BB-	-rum	.	.	2d\	-ple-	.	.
.	.	.	.	[2f\	.	.	.
=258	=258	=258	=258	=258	=258	=258	=258
2r	.	0r	.	4f\]	.	0r	.
.	.	.	.	4e\	.	.	.
2F\	re-	.	.	4d\	.	.	.
.	.	.	.	4c\	.	.	.
2D\	-ple-	.	.	2B-\	.	.	.
[2F\	.	.	.	2A/	.	.	.
=259	=259	=259	=259	=259	=259	=259	=259
4F\]	.	0r	.	2F/	-bo	0r	.
4E\	.	.	.	.	.	.	.
2D\	-bo	.	.	1B-	e-	.	.
1C	e-	.	.	.	.	.	.
.	.	.	.	2A/	.	.	.
=260	=260	=260	=260	=260	=260	=260	=260
0BB-	-um,	1r	.	0B-	-um,	2r	.
.	.	.	.	.	.	2d/	et
.	.	2r	.	.	.	2d/	os-
.	.	2d\	et	.	.	2d/	-ten-
=261	=261	=261	=261	=261	=261	=261	=261
0r	.	2d\	os-	0r	.	2B-/	-dam
.	.	2d\	-ten-	.	.	2.d/	il-
.	.	2B-\	-dam	.	.	.	.
.	.	.	.	.	.	4c/	.
.	.	[2d\	il-	.	.	4B-/	.
.	.	.	.	.	.	4A/	.
=262	=262	=262	=262	=262	=262	=262	=262
0r	.	4d\]	.	0r	.	2G/	-li
.	.	4c\	.	.	.	.	.
.	.	4B-\	.	.	.	2d/	sa-
.	.	4A/	.	.	.	.	.
.	.	1G	.	.	.	2d/	-lu-
.	.	.	.	.	.	2d/	-ta-
=263	=263	=263	=263	=263	=263	=263	=263
2r	.	0F	-li	1r	.	0f	-re,
2D\	et	.	.	.	.	.	.
2D\	os-	.	.	2r	.	.	.
2D\	-ten-	.	.	2d\	et	.	.
=264	=264	=264	=264	=264	=264	=264	=264
2BB-/	-dam	0r	.	2d\	os-	0r	.
2.D\	il-	.	.	2d\	-ten-	.	.
.	.	.	.	2B-\	-dam	.	.
4C/	.	.	.	.	.	.	.
4BB-/	.	.	.	[2d\	il-	.	.
4AA/	.	.	.	.	.	.	.
=265	=265	=265	=265	=265	=265	=265	=265
1GG	-li	2r	.	4d\]	.	2r	.
.	.	.	.	4c\	.	.	.
.	.	2G/	sa-	4B-\	.	2d/	sa-
.	.	.	.	4A/	.	.	.
2r	.	2G/	-lu-	2G/	-li	2d/	-lu-
2GG/	sa-	2G/	-ta-	2B-\	sa-	2d/	-ta-
=266	=266	=266	=266	=266	=266	=266	=266
2D\	-lu-	1F	-re	2A/	-lu-	4f/	-re
.	.	.	.	.	.	4g/	.
2D\	-ta-	.	me-	2F/	-ta-	2.a/	me-
1C	-re	1G	.	2.c\	-re	.	.
.	.	.	.	.	.	4g/	.
.	.	.	.	.	.	[2g/	.
.	.	.	.	4B-\	.	.	.
=267	=267	=267	=267	=267	=267	=267	=267
1D	me-	1D	-um,	1A	me-	2g/]	.
.	.	.	.	.	.	2f#i/	.
1GG	-um,	2r	.	1G	-um,	2g/	-um,
.	.	2G/	sa-	.	.	2d/	sa-
=268	=268	=268	=268	=268	=268	=268	=268
2r	.	2G/	-lu-	2r	.	2d/	-lu-
2GG/	sa-	2G/	-ta-	2B-\	sa-	2d/	-ta-
2D\	-lu-	1F	-re	2A/	-lu-	4f/	re-
.	.	.	.	.	.	4g/	.
2D\	-ta-	.	.	2F/	-ta-	[2a/	me-
=269	=269	=269	=269	=269	=269	=269	=269
1C	-re	1G	.	2.c\	-re	4a/]	.
.	.	.	.	.	.	4g/	.
.	.	.	.	.	.	1g	.
.	.	.	.	4B-\	.	.	.
1D	me-	1D	me-	1A	me-	.	.
.	.	.	.	.	.	2f#i/	.
=270	=270	=270	=270	=270	=270	=270	=270
2GG/	-um,	2B-\	-um,	2G/	-um,	1g	-um.
2C/	sa-	2c\	sa-	2E-i/	sa-	.	.
2BB-/	-lu-	2d\	-lu-	2D/	-lu-	1r	.
[2E-\	-ta-	[2B-\	-ta-	[2G/	-ta-	.	.
=271	=271	=271	=271	=271	=271	=271	=271
4E-\]	.	4B-\]	.	4G/]	.	1G	Qui
4D\	.	4c\	.	4F/	.	.	.
2BB-/	-re	2d\	-re	2D/	-re	.	.
2.C/	me-	2.G/	me-	1E-i	me-	2G/	ha-
.	.	.	.	.	.	2G/	-bi-
4BB-/	.	4A/	.	.	.	.	.
=272	=272	=272	=272	=272	=272	=272	=272
[0GG	-um.	0B-	-um.	0D	-um.	1.d	-tat
.	.	.	.	.	.	2G/	in
=273	=273	=273	=273	=273	=273	=273	=273
0GG]	.	1G	Qui	0r	.	2d/	ad-
.	.	.	.	.	.	2G/	-ju-
.	.	2G/	ha-	.	.	2d/	-to-
.	.	2G/	-bi-	.	.	2e/	-ri-
=274	=274	=274	=274	=274	=274	=274	=274
0r	.	1.d	-tat	0r	.	1f	-o
.	.	.	.	.	.	1B-	al-
.	.	2G/	in	.	.	.	.
=275	=275	=275	=275	=275	=275	=275	=275
0r	.	2d\	ad-	1G	Qui	1.b-	-tis-
.	.	2G/	-ju-	.	.	.	.
.	.	2d\	-to-	2G/	ha-	.	.
.	.	2e\	-ri-	2G/	-bi-	2b-\	-si-
=276	=276	=276	=276	=276	=276	=276	=276
0r	.	1f	-o	1.d	-tat	1a	-mi,
.	.	2d\	al-	.	.	2a/	al-
.	.	[2d\	-tis-	2G/	in	[2b-\	-tis-
=277	=277	=277	=277	=277	=277	=277	=277
1GG	Qui	4d\]	.	2d\	ad-	4b-\]	.
.	.	4c\	.	.	.	4a/	.
.	.	4B-\	.	2G/	-ju-	4g/	.
.	.	4A/	.	.	.	4f/	.
2GG/	ha-	2B-\	.	2d\	-to-	2g/	.
2GG/	-bi-	2B-\	-si-	2e\	-ri-	2g/	-si-
=278	=278	=278	=278	=278	=278	=278	=278
1.D	-tat	2A/	-mi,	1f	-o	1a	-mi,
.	.	2D/	al-	.	.	.	.
.	.	2F/	-tis-	2d\	al-	2a/	al-
2GG/	in	2G/	-si-	[2d\	-tis-	2b-\	-tis-
=279	=279	=279	=279	=279	=279	=279	=279
2D\	ad-	2D/	-mi,	4d\]	.	2a/	.
.	.	.	.	4c\	.	.	.
2GG/	-ju-	2G/	al-	4B-\	.	1b-	.
.	.	.	.	4A/	.	.	.
2D\	-to-	2F/	-tis-	2B-\	.	.	.
2E\	-ri-	2G/	-si-	2B-\	-si-	4a/	-si-
.	.	.	.	.	.	4g/	.
=280	=280	=280	=280	=280	=280	=280	=280
1F	-o	4D/	-mi,	2A/	-mi,	1a	-mi,
.	.	4E/	.	.	.	.	.
.	.	4F/	.	2d\	al-	.	.
.	.	4G/	.	.	.	.	.
2F\	al-	2A/	.	2c\	-tis-	2a/	al-
[2G\	-tis-	4G/	al-	2B-\	.	[2b-\	-tis-
.	.	4A/	.	.	.	.	.
=281	=281	=281	=281	=281	=281	=281	=281
4G\]	.	4B-\	.	1G	.	4b-\]	.
4F\	.	4c\	.	.	.	4a/	.
4E\	.	2.d\	-tis-	.	.	4g/	.
4D\	.	.	.	.	.	4f/	.
2E\	.	.	.	1G	-si-	2g/	.
.	.	4c#i\	.	.	.	.	.
2E\	-si-	4c#i\	-si-	.	.	2g/	-si-
.	.	4Bni\	.	.	.	.	.
=282	=282	=282	=282	=282	=282	=282	=282
0Dl	-mi.	0dl	-mi.	0Al	-mi.	0fl	-mi.
==	==	==	==	==	==	==	==
*-	*-	*-	*-	*-	*-	*-	*-
!!!RDF**kern: l=long note in original notation
!!!RDF**kern: i=editorial accidental
!!!ENC: Jesse Rodin 8-17-2012
!!!END: 2012/08/17/
!!!EED: Jesse Rodin
!!!EEV: 2012/08/17/
!!attribution-level@Jos: 1 (secure, core group [checkmark])
!!!ONB: Translated from MusicXML and edited on 2012/08/17/ by Craig Sapp
!!muse2ps: u^(2) @{OTL2}^C^@{COM}\n@{SCT}^i2I150v90,90,90,120c110z18l2700t130
